X: 1
T: Maurice O'Keeffe's
M: 2/4
L: 1/8
R: polka
K: Dmaj
|:F2 G2|AF Dd|cA Bc|BA FD|
F2 GF/G/|AF Dd|cA GE|ED D2:|
|:f2 fg|fd Ad|cA Bc|BA FD|
[1f2 fg|fd Ad|cA Bc|d2 de:|
[2F2 GF/G/|AF Dd|cA GE|ED D2||
